X: 30057
T: Offspring, The
R: polka
M: 2/4
K: Gmajor
Bd G>A|Bd G>A|Bd ge|dB G/B/A/G/|
Bd G>A|Bd G>B|AF Ad|fa/g/ f/e/d/c/|
Bd G>A|Bd G>A|BG Bd|g2 a/b/a/g/|
ee d2|ee de|dG BA|AG Gf||
af f/e/f/g/|af f>g|af a/b/a/f/|ge e>f|
ge e/d/e/f/|ge ee/f/|gb ab|af f/e/f/g/|
af f/e/f/g/|af d>f|af ac'|ba g>a|
bg bg|ab e/f/g|af ge|fd d2||

